icon-themes/breeze_svg/cmd/sc_verticaltext.svg

<svg viewBox="0 0 16 16" xmlns="http://www.w3.org/2000/svg">/&gt;<path d="m10 2v1h2v4h-9v-1h-1v3h1v-1h9v4h-2v1h3v-10-1h-1z" fill="#4d4d4d"/></svg>

<svg xmlns="http://www.w3.org/2000/svg" viewBox="0 0 16 16">
     />
 <path 
     style="fill:#4d4d4d" 
     d="M 10 2 L 10 3 L 12 3 L 12 7 L 3 7 L 3 6 L 2 6 L 2 9 L 3 9 L 3 8 L 12 8 L 12 12 L 10 12 L 10 13 L 13 13 L 13 3 L 13 2 L 12 2 L 10 2 z "
     />
 </svg>
